X:1
T:James Gibb editions
T:Jesu, Sun of righteousness - Barnby
%%score [ ( 1 2 ) ( 3 4 ) ]
L:1/8
Q:1/4=96
M:4/4
K:G
V:1 treble nm="Midi_74"
V:2 treble 
V:3 bass nm="Midi_74"
V:4 bass 
V:1
"^Jesu, Sun of righteousness""^77. 77. 73""^Joseph Barnby\n(1838-96)" B2 G2 c2 B2 | B3 A A4 || %2
 c2 A2 d2 c2 | c2 BA B4 || B2 G2 c2 B2 |"^1" B3 A A4 ||[M:4/4] B2 A2 G2 FE | F2 E2 D4 || %8
!<(! G2 B2 e2!<)! d2 | c2!>(! B2 (A2 G2)!>)! ||!p! (F2 G2) A4 | G8 || G4 G4 |] %13
V:2
 G2 G2 G2 G2 | E3 E E4 || D2 F2 G2 A2 | A2 GF G4 || G2 E2 A2 G2 | G3 F F4 ||[M:4/4] F2 ^D2 E2 B,2 | %7
 D2 ^C2 D4 || D2 D2 G2 =F2 | E2 E2 E4 || (D2 E2) F4 | G8 || E4 D4 |] %13
V:3
 D2 B,2 E2 D2 | C3 C C4 || A,2 D2 D2 D2 | D2 D2 D4 || E2 B,2 A,2 B,2 | C3 C C4 || %6
[M:4/4] B,2 F,2 G,2 B,2 | A,2 G,2 F,4 || G,2 G,2 G,2 G,2 | G,2 ^G,2 (A,2 _B,2) || %10
 (A,2 !courtesy!=B,2) C4 | B,8 || C4 B,4 |] %13
V:4
 G,2 G,2 G,2 G,2 | G,3 G, G,4 || F,2 D,2 E,2 F,2 | G,2 G,2 G,4 || E,2 E,2 E,2 E,2 | E,3 E, E,4 || %6
[M:4/4] ^D,2 B,,2 E,2 G,,2 | A,,2 A,,2 (D,2 !courtesy!=C,2) || B,,2 G,,2 A,,2 B,,2 | %9
 C,2 C,2 (C,2 ^C,2) || D,4 D,4 | G,8 || C,4 G,,4 |] %13

